svgs/thin/square-phone.svg

<svg xmlns="http://www.w3.org/2000/svg" viewBox="0 0 448 512"><!--! Font Awesome Pro 6.0.0-alpha3 by @fontawesome - https://fontawesome.com License - https://fontawesome.com/license (Commercial License) --><path d="M384 32H64C28.65 32 0 60.65 0 96v320c0 35.35 28.65 64 64 64h320c35.35 0 64-28.65 64-64V96C448 60.65 419.3 32 384 32zM432 416c0 26.47-21.53 48-48 48H64c-26.47 0-48-21.53-48-48V96c0-26.47 21.53-48 48-48h320c26.47 0 48 21.53 48 48V416zM345.7 296.3l-54.23-23.23c-9.656-4.172-21.05-1.422-27.59 6.766l-17.94 21.89C217.4 286.3 193.7 262.6 178.3 234.1l21.91-17.94c8.078-6.609 10.88-17.94 6.781-27.58L183.7 134.3C179.1 123.8 167.7 118.1 156.7 120.6L106.3 132.2C95.53 134.7 88 144.2 88 155.3C88 285.8 194.2 392 324.7 392c11.09 0 20.56-7.531 23.05-18.31l11.62-50.39C361.1 312.2 356.2 300.8 345.7 296.3zM332.2 370.1C331.4 373.6 328.3 376 324.7 376C203 376 104 276.1 104 155.3c0-3.578 2.422-6.625 5.906-7.422l50.39-11.62C160.9 136.1 161.4 136 161.1 136c3 0 5.813 1.781 7.047 4.625l23.27 54.25c1.312 3.109 .4219 6.766-2.188 8.906L158.3 229.8l2.797 5.703C178.8 271.6 208.4 301.2 244.5 318.1l5.703 2.797l26.09-31.88c2.109-2.625 5.734-3.484 8.844-2.141l54.23 23.23c3.406 1.469 5.266 5.141 4.438 8.734L332.2 370.1z"/></svg>

<svg xmlns="http://www.w3.org/2000/svg" viewBox="0 0 448 512"><!-- Font Awesome Pro 6.0.0-alpha2 by @fontawesome - https://fontawesome.com License - https://fontawesome.com/license (Commercial License) --><path d="M384 32H64C28.654 32 0 60.654 0 96V416C0 451.346 28.654 480 64 480H384C419.348 480 448 451.346 448 416V96C448 60.654 419.348 32 384 32ZM432 416C432 442.467 410.467 464 384 464H64C37.533 464 16 442.467 16 416V96C16 69.533 37.533 48 64 48H384C410.467 48 432 69.533 432 96V416ZM345.703 296.266L291.469 273.031C281.813 268.859 270.422 271.609 263.875 279.797L245.938 301.688C217.422 286.297 193.734 262.625 178.344 234.109L200.25 216.172C208.328 209.562 211.125 198.234 207.031 188.594L183.734 134.266C179.141 123.766 167.672 118.125 156.688 120.609L106.328 132.234C95.531 134.688 88 144.156 88 155.25C88 285.797 194.203 392 324.734 392C335.828 392 345.297 384.469 347.781 373.688L359.406 323.297C361.969 312.172 356.219 300.812 345.703 296.266ZM332.188 370.094C331.391 373.578 328.328 376 324.734 376C203.016 376 104 276.969 104 155.25C104 151.672 106.422 148.625 109.906 147.828L160.297 136.203C160.859 136.062 161.438 136 162 136C165 136 167.812 137.781 169.047 140.625L192.312 194.875C193.625 197.984 192.734 201.641 190.125 203.781L158.281 229.844L161.078 235.547C178.797 271.609 208.422 301.234 244.5 318.953L250.203 321.75L276.297 289.875C278.406 287.25 282.031 286.391 285.141 287.734L339.375 310.969C342.781 312.437 344.641 316.109 343.813 319.703L332.188 370.094Z"/></svg>
